images/script.svg

<?xml version="1.0" ?><svg height="32px" version="1.1" viewBox="0 0 32 32" width="32px" xmlns="http://www.w3.org/2000/svg" xmlns:sketch="http://www.bohemiancoding.com/sketch/ns" xmlns:xlink="http://www.w3.org/1999/xlink"><title/><desc/><defs/><g fill="none" fill-rule="evenodd" id="Page-1" stroke="none" stroke-width="1"><g fill="#929292" id="icon-69-document-text"><path d="M19,3 L9.0085302,3 C7.8992496,3 7,3.89833832 7,5.00732994 L7,27.9926701 C7,29.1012878 7.89092539,30 8.99742191,30 L24.0025781,30 C25.1057238,30 26,29.1090746 26,28.0025781 L26,11 L21.0059191,11 C19.8980806,11 19,10.1132936 19,9.00189865 L19,3 L19,3 Z M10,6 L10,7 L10,8 L11,8 L11,7 L12,7 L12,11 L13,11 L13,7 L14,7 L14,8 L15,8 L15,7 L15,6 L10,6 L10,6 Z M20,3 L20,8.99707067 C20,9.55097324 20.4509752,10 20.990778,10 L26,10 L20,3 L20,3 Z M10,16 L10,17 L23,17 L23,16 L10,16 L10,16 Z M10,13 L10,14 L23,14 L23,13 L10,13 L10,13 Z M10,19 L10,20 L23,20 L23,19 L10,19 L10,19 Z M10,22 L10,23 L23,23 L23,22 L10,22 L10,22 Z M10,25 L10,26 L23,26 L23,25 L10,25 L10,25 Z" id="document-text"/></g></g></svg>

<svg height="32" width="32" xmlns="http://www.w3.org/2000/svg">
  <path d="M19 3H9.009C7.899 3 7 3.898 7 5.007v22.986A2 2 0 008.997 30h15.006C25.106 30 26 29.11 26 28.003V11h-4.994A1.997 1.997 0 0119 9.002V3zm-9 3v2h1V7h1v4h1V7h1v1h1V6h-5zm10-3v5.997c0 .554.451 1.003.99 1.003H26l-6-7zM10 16v1h13v-1H10zm0-3v1h13v-1H10zm0 6v1h13v-1H10zm0 3v1h13v-1H10zm0 3v1h13v-1H10z" fill="#929292" fill-rule="evenodd"/>
</svg>
